X: 973
T: Hasretle Yanan Kalbime
C: Emin Ongan
O: Turkey
F: http://compmusic.upf.edu/node/140
N: suzinak-zirgule--sarki--aksak--hasretle_yanan--emin_ongan
N: makam= suzinak-zirgule
N: form= sarki
N: usul= aksak = 9/8
M: 9/8
L: 1/16
K: C _1/4B _7/8e _7/8A ^f
Q: 1/4=132
%%MIDI tuningsystem comma53
c4 d4 e2dc B6 | z2 c4 A2AG G8  | c4 d4 e2f2 g2e2 {f}ed | \
w:  Has ret le  ya *  nan   |  kal *  bi *  me   |  yet mez  gi bi  der  | 
d8d2 {f}ede6  | 
w:  dim  ah    | 
d4 e4 d2c2 B4 d2 | d6 B2c2 BAG4z2  | \
w:  yet mez  gi bi  der  |  dim   SAZ  | 
c4 d4 e2dc B6 | z2 c4 A2AG G8  | 
w:  Has ret le  ya *  nan   |  kal *  bi *  me   | 
c4 d4 e2f2 g2e2 {f}ed | d8d2 {f}ede6  | \
w:  yet mez  gi bi  der  |  dim  ah    | 
d4 e4 d2c2 B4 d2 | d6 fedc Bcd6  | 
w:  yet mez  gi bi  der  |  dim   SAZ  | 
d3e f2g2 a2ag g4 {a}gf | z2 f2e2 {f}eddc cBc6  | \
w:  Bir  *  öm *  rü  se *  nin   |  uğ *  *  ru *  na   | 
_1/4e4 =f4 _7/8e2d2 c4 d2 | 
w:  rü ya  gi bi  ver  | 
e12z4z2  | d4 e4 d2c2 c2Bd cB | B6 fedc BcB2 a2g2  | 
w:  dim    |  rü ya  gi bi  ver  |  dim   SAZ  | 
f4 g4 a2ag g4 {a}gf | z2 f2e2 {f}eddc cBc6  | \
w:  Bir  öm rü  se *  nin   |  uğ *  *  ru *  na   | 
._1/4e4 .=f4 _7/8e2d2 c4 d2 | 
w:  rü ya  gi bi  ver  | 
e12z4z2  | d3g fedc B2e2 dcBA AG | G6 =a_bag g=fg6  | 
w:  dim    |  rü *  ya  *  *  *  gi bi  ver  |  dim   SAZ  | 
=f4 g3f f_2/4eed d2e2 f2 | =a2 g=f(3gf_3/4e (3eedd8z2  | 
w:  Aşk  ol *  ma *  sa  *  gön  |  lüm  *  *  *  *  *  *  *  *  de   | 
=a2_b4{c'}ba a2g2 c'bag =f_2/4e | \
w:  te ham *  *  *  mül   | 
d_3/4e c2=ag g=ff2 _2/4e2gf _7/8eeed  | 
w:  *  *  *  mü  *  e *  der  | 
d12 g=fed c2 | =a2 _b4 baa2 g2c'b ag=f_2/4e  | \
w:  dim    |  te ham *  *  mül   | 
d_2/4ec2 =agg=f f2e2 gf_7/8e2 ed | 
w:  *  *  *  mü  *  e *  der  | 
d6 fedc Bcd6  | d3e f2g2 a2ag g4 {a}gf | \
w:  dim   SAZ  |  Bir  *  öm *  rü  se *  nin   | 
z2 f2e2 {f}eddc cBc6  | 
w:  uğ *  *  ru *  na   | 
_1/4e4 =f4 _7/8e2d2 c4 d2 | e12z4z2  | \
w:  rü ya  gi bi  ver  |  dim    | 
d4 e4 d2c2 c2Bd cB | B6 fedc BcB2 a2g2  | 
w:  rü ya  gi bi  ver  |  dim   SAZ  | 
f4 g4 a2ag g4 {a}gf | z2 f2e2 {f}eddc cBc6  | \
w:  Bir  öm rü  se *  nin   |  uğ *  *  ru *  na   | 
._1/4e4 .=f4 _7/8e2d2 c4 d2 | 
w:  rü ya  gi bi  ver  | 
e12z4z2  | d3g fedc B2e2 dcBA AG | G6 |
w:  dim    |  rü *  ya  *  *  *  gi bi  ver  |  dim    | 


